X: 29729
T: Ny Giv
R: hornpipe
M: 4/4
K: Eminor
b2-|b2 fg e2 ed|B>A F<G E2 EF|G2 GA B2 d2|d>c B<c e>^d ^c<d|
e>b f<g e2 e=d|B>A F<G E2 EF|G2 B2 A>G F<G|F2 E2 E2:|EF|
|:G2 A<B G2 A<B|d2 f<e f2 B<d|e2 f<g g2 a<b|b>a a<f d2 BA|
G2 A<B G2 A<B|d2 f<e f2 B<d|g2 b2 a>f d<f|a2 g2 g2 BA:|

